!!!OTL: No_24_First_Song_of_the_Mî'nîsîno'wuck.krn
!!!REG: Great_Lakes
!!!LANG: Non-Tone
!!!LING_GROUP: Algonquin
!!!SOCIAL_FUNCTION: songs of war
**kern	**kern
*staff2	*staff1
*clefF4	*clefF4
*k[f#c#]	*k[f#c#]
*M2/4	*M2/4
16r	16f#\
=1	=1
8GG/L	8.f#\L
8GG/J	.
.	16f#\Jk
8GG/L	8.f#\L
8GG/J	.
.	16e\Jk
=2	=2
8GG/L	4d\
8GG/J	.
8GG/L	8.d\L
8GG/J	.
.	32e\LL
.	32e\JJJ
=3||	=3||
*M3/4	*M3/4
2.r	8.d\L
.	16B\Jk
.	4B\
.	4B\
=4	=4
2.r	4B\
.	4B\
.	8.B\L
.	16B\Jk
=5||	=5||
*M2/4	*M2/4
2r	8.A\L
.	16A\Jk
.	8.F#\L
.	16F#\Jk
=6	=6
2r	(8F#\L
.	8E\J)
.	8.D\L
.	32E\LL
.	32E\JJJ
=7||	=7||
*M3/4	*M3/4
2.r	8.D/L
.	16BB/Jk
.	4BB/
.	4BB/
=8	=8
2.r	2BB/
.	4BB/
==	==
*-	*-
